packages/core/assets/Icons/drag_indicator.svg

<svg viewBox="0 0 20 20" fill="none" xmlns="http://www.w3.org/2000/svg">
<path d="M7.49998 16.6667C7.04165 16.6667 6.64929 16.5035 6.3229 16.1771C5.99651 15.8507 5.83331 15.4584 5.83331 15C5.83331 14.5417 5.99651 14.1493 6.3229 13.823C6.64929 13.4966 7.04165 13.3334 7.49998 13.3334C7.95831 13.3334 8.35067 13.4966 8.67706 13.823C9.00345 14.1493 9.16665 14.5417 9.16665 15C9.16665 15.4584 9.00345 15.8507 8.67706 16.1771C8.35067 16.5035 7.95831 16.6667 7.49998 16.6667ZM12.5 16.6667C12.0416 16.6667 11.6493 16.5035 11.3229 16.1771C10.9965 15.8507 10.8333 15.4584 10.8333 15C10.8333 14.5417 10.9965 14.1493 11.3229 13.823C11.6493 13.4966 12.0416 13.3334 12.5 13.3334C12.9583 13.3334 13.3507 13.4966 13.6771 13.823C14.0035 14.1493 14.1666 14.5417 14.1666 15C14.1666 15.4584 14.0035 15.8507 13.6771 16.1771C13.3507 16.5035 12.9583 16.6667 12.5 16.6667ZM7.49998 11.6667C7.04165 11.6667 6.64929 11.5035 6.3229 11.1771C5.99651 10.8507 5.83331 10.4584 5.83331 10C5.83331 9.54171 5.99651 9.14935 6.3229 8.82296C6.64929 8.49657 7.04165 8.33337 7.49998 8.33337C7.95831 8.33337 8.35067 8.49657 8.67706 8.82296C9.00345 9.14935 9.16665 9.54171 9.16665 10C9.16665 10.4584 9.00345 10.8507 8.67706 11.1771C8.35067 11.5035 7.95831 11.6667 7.49998 11.6667ZM12.5 11.6667C12.0416 11.6667 11.6493 11.5035 11.3229 11.1771C10.9965 10.8507 10.8333 10.4584 10.8333 10C10.8333 9.54171 10.9965 9.14935 11.3229 8.82296C11.6493 8.49657 12.0416 8.33337 12.5 8.33337C12.9583 8.33337 13.3507 8.49657 13.6771 8.82296C14.0035 9.14935 14.1666 9.54171 14.1666 10C14.1666 10.4584 14.0035 10.8507 13.6771 11.1771C13.3507 11.5035 12.9583 11.6667 12.5 11.6667ZM7.49998 6.66671C7.04165 6.66671 6.64929 6.50351 6.3229 6.17712C5.99651 5.85074 5.83331 5.45837 5.83331 5.00004C5.83331 4.54171 5.99651 4.14935 6.3229 3.82296C6.64929 3.49657 7.04165 3.33337 7.49998 3.33337C7.95831 3.33337 8.35067 3.49657 8.67706 3.82296C9.00345 4.14935 9.16665 4.54171 9.16665 5.00004C9.16665 5.45837 9.00345 5.85074 8.67706 6.17712C8.35067 6.50351 7.95831 6.66671 7.49998 6.66671ZM12.5 6.66671C12.0416 6.66671 11.6493 6.50351 11.3229 6.17712C10.9965 5.85074 10.8333 5.45837 10.8333 5.00004C10.8333 4.54171 10.9965 4.14935 11.3229 3.82296C11.6493 3.49657 12.0416 3.33337 12.5 3.33337C12.9583 3.33337 13.3507 3.49657 13.6771 3.82296C14.0035 4.14935 14.1666 4.54171 14.1666 5.00004C14.1666 5.45837 14.0035 5.85074 13.6771 6.17712C13.3507 6.50351 12.9583 6.66671 12.5 6.66671Z" fill="currentColor"/>
</svg>

<svg xmlns="http://www.w3.org/2000/svg" width="20" height="20" fill="none" viewBox="0 0 20 20">
  <path fill="#201F1F" d="M7.5 16.667c-.458 0-.85-.164-1.177-.49A1.605 1.605 0 0 1 5.833 15c0-.458.164-.85.49-1.177.326-.326.719-.49 1.177-.49.458 0 .85.164 1.177.49.326.326.49.719.49 1.177 0 .458-.164.85-.49 1.177-.326.326-.719.49-1.177.49Zm5 0c-.458 0-.85-.164-1.177-.49a1.605 1.605 0 0 1-.49-1.177c0-.458.163-.85.49-1.177.326-.326.719-.49 1.177-.49.458 0 .85.164 1.177.49.327.326.49.719.49 1.177 0 .458-.163.85-.49 1.177-.326.326-.719.49-1.177.49Zm-5-5c-.458 0-.85-.163-1.177-.49A1.605 1.605 0 0 1 5.833 10c0-.458.164-.85.49-1.177.326-.326.719-.49 1.177-.49.458 0 .85.164 1.177.49.326.326.49.719.49 1.177 0 .458-.164.85-.49 1.177-.326.327-.719.49-1.177.49Zm5 0c-.458 0-.85-.163-1.177-.49a1.605 1.605 0 0 1-.49-1.177c0-.458.163-.85.49-1.177.326-.326.719-.49 1.177-.49.458 0 .85.164 1.177.49.327.326.49.719.49 1.177 0 .458-.163.85-.49 1.177-.326.327-.719.49-1.177.49Zm-5-5c-.458 0-.85-.163-1.177-.49A1.605 1.605 0 0 1 5.833 5c0-.458.164-.85.49-1.177.326-.326.719-.49 1.177-.49.458 0 .85.164 1.177.49.326.326.49.719.49 1.177 0 .458-.164.85-.49 1.177-.326.327-.719.49-1.177.49Zm5 0c-.458 0-.85-.163-1.177-.49A1.605 1.605 0 0 1 10.833 5c0-.458.163-.85.49-1.177.326-.326.719-.49 1.177-.49.458 0 .85.164 1.177.49.327.326.49.719.49 1.177 0 .458-.163.85-.49 1.177-.326.327-.719.49-1.177.49Z"/>
</svg>
